X:374
T: Peacock (The)
N: O'Farrell's Pocket Companion v.4 (Sky ed. p.161)
N: "Irish"
% Close relative of "The Parting Glass"
M: C
L: 1/8
Q: 320
R: hornpipe
K: Em
B>A| G2E2E2 DE| G2G2A2 GA| B3c dcBA| G2E2D2 BA|
G2E2E2 D>E| G2G2A2 GA| B2e2 ecBA| G2E2E2 :|
z2| d3e dcBA| B2e2e2 fg| d3e dcBA| G2E2D2 BA|
G2E2E2 D>E| G2G2A2 GA| B2e2 dcBA| G2E2E2 :|
